devoot-frontend/vue-project/src/assets/icons/logo.svg

<svg width="24" height="24" viewBox="0 0 24 24" fill="none" xmlns="http://www.w3.org/2000/svg">
<g id="Logo">
<path id="Vector" d="M22.9869 8.56641C22.7267 7.94813 22.2946 7.50235 21.7367 7.27781L21.7292 7.275C21.4753 7.17556 21.205 7.12467 20.9324 7.125H20.9024C19.6255 7.14422 18.3219 8.22938 17.6591 9.82547C17.173 10.9927 17.1172 12.248 17.51 13.1836C17.7697 13.8023 18.2028 14.2481 18.763 14.4727L18.7691 14.475C19.023 14.5744 19.2933 14.6253 19.566 14.625C20.855 14.625 22.1722 13.5398 22.8472 11.9227C23.3272 10.7569 23.3802 9.5025 22.9869 8.56641Z" fill="#21272A"/>
<path id="Vector_2" d="M17.8853 15.4505C17.1489 15.008 16.4528 14.5894 15.9981 13.8375C14.7438 11.7563 13.9863 10.5 12.0002 10.5C10.0141 10.5 9.25471 11.7563 7.99752 13.8375C7.5419 14.5903 6.8444 15.0094 6.10565 15.4537C5.25862 15.9628 4.38346 16.4887 4.00565 17.5237C3.85877 17.8969 3.78478 18.2947 3.78768 18.6956C3.78768 20.3808 5.10018 21.7519 6.71268 21.7519C7.54471 21.7519 8.43018 21.4636 9.36721 21.1584C10.2681 20.865 11.1996 20.5617 12.0049 20.5617C12.8102 20.5617 13.7392 20.865 14.6369 21.1584C15.5721 21.4617 16.4533 21.75 17.2877 21.75C18.8978 21.75 20.208 20.3789 20.208 18.6937C20.2093 18.2925 20.1337 17.8947 19.9853 17.5219C19.6075 16.4859 18.7319 15.9595 17.8853 15.4505Z" fill="#21272A"/>
<path id="Vector_3" d="M7.03102 8.85234C7.58883 9.55219 8.29664 9.9375 9.02414 9.9375C9.12346 9.9375 9.22264 9.93013 9.32086 9.91547C10.8382 9.69234 11.7837 7.84078 11.4734 5.69672C11.3435 4.79531 10.9966 3.95578 10.4998 3.33328C9.94289 2.63484 9.23414 2.25 8.50711 2.25C8.4078 2.25 8.30862 2.25737 8.21039 2.27203C6.69305 2.49516 5.74758 4.34672 6.05789 6.49078C6.18727 7.39078 6.53414 8.22938 7.03102 8.85234Z" fill="#21272A"/>
<path id="Vector_4" d="M14.6791 9.91543C14.7774 9.93009 14.8765 9.93746 14.9759 9.93746C15.7038 9.93746 16.4112 9.55215 16.969 8.85231C17.4654 8.22934 17.8104 7.39074 17.9416 6.4898C18.252 4.34668 17.3065 2.49512 15.7891 2.27105C15.6909 2.25639 15.5917 2.24903 15.4924 2.24902C14.7654 2.24996 14.0566 2.6348 13.4998 3.33324C13.0029 3.95574 12.656 4.79527 12.5266 5.69762C12.2163 7.84074 13.1618 9.6923 14.6791 9.91543Z" fill="#21272A"/>
<path id="Vector_5" d="M5.23098 14.475L5.23754 14.4727C5.79676 14.2481 6.22941 13.8028 6.48863 13.1845C6.88145 12.247 6.82613 10.9931 6.34098 9.82594C5.66926 8.21063 4.35254 7.125 3.06488 7.125C2.7922 7.12461 2.52188 7.17549 2.26801 7.275L2.26145 7.27735C1.70363 7.5 1.27098 7.94719 1.01176 8.56547C0.618946 9.50297 0.674259 10.7569 1.15941 11.9241C1.83113 13.5394 3.14785 14.625 4.43551 14.625C4.70772 14.6252 4.97754 14.5743 5.23098 14.475Z" fill="#21272A"/>
</g>
</svg>

<svg xmlns="http://www.w3.org/2000/svg" width="24" height="24" fill="none" viewBox="0 0 24 24">
  <path fill="#21272A" d="M22.987 8.566c-.26-.618-.692-1.064-1.25-1.288l-.008-.003c-.254-.1-.524-.15-.797-.15h-.03c-1.277.02-2.58 1.104-3.243 2.7-.486 1.168-.542 2.423-.149 3.359.26.618.693 1.064 1.253 1.289l.006.002c.254.1.524.15.797.15 1.289 0 2.606-1.085 3.281-2.702.48-1.166.533-2.42.14-3.357Zm-5.102 6.884c-.736-.442-1.432-.86-1.887-1.612C14.744 11.756 13.986 10.5 12 10.5c-1.986 0-2.745 1.256-4.002 3.338-.456.752-1.154 1.171-1.892 1.616-.847.509-1.723 1.035-2.1 2.07a3.13 3.13 0 0 0-.218 1.172c0 1.685 1.312 3.056 2.925 3.056.832 0 1.717-.288 2.654-.594.901-.293 1.833-.596 2.638-.596.805 0 1.734.303 2.632.596.935.304 1.816.592 2.65.592 1.61 0 2.921-1.371 2.921-3.056a3.141 3.141 0 0 0-.223-1.172c-.377-1.036-1.253-1.562-2.1-2.071ZM7.031 8.852c.558.7 1.266 1.085 1.993 1.085.1 0 .199-.007.297-.022 1.517-.223 2.463-2.074 2.152-4.218-.13-.902-.476-1.741-.973-2.364-.557-.698-1.266-1.083-1.993-1.083-.1 0-.198.007-.297.022-1.517.223-2.462 2.075-2.152 4.219.13.9.476 1.738.973 2.361Zm7.649 1.063c.097.015.197.022.296.022.728 0 1.435-.385 1.993-1.085.496-.623.841-1.461.973-2.362.31-2.143-.636-3.995-2.153-4.219a2.011 2.011 0 0 0-.297-.022c-.727.001-1.435.386-1.992 1.084-.497.623-.844 1.462-.973 2.365-.31 2.143.635 3.994 2.152 4.217Zm-9.449 4.56.007-.002c.559-.225.991-.67 1.25-1.289.393-.937.338-2.19-.147-3.358-.672-1.615-1.988-2.701-3.276-2.701-.273 0-.543.05-.797.15l-.007.002c-.557.223-.99.67-1.25 1.288-.392.938-.337 2.192.148 3.36.672 1.614 1.989 2.7 3.277 2.7.272 0 .542-.05.795-.15Z"/>
</svg>
